icon-themes/sifr_svg/cmd/lc_mergecells.svg

<svg viewBox="0 0 24 24" xmlns="http://www.w3.org/2000/svg"><path d="m3 3v4h-2v10h2v4h18v-4h2v-10h-2v-4zm2 2h4v2h-4zm5 0h4v2h-4zm5 0h4v2h-4zm-7 3h8c.516588 0 1.018083.1810214 1.412109.5605469l.007813.0078125.43164.4316406h3.148438v6h-3.167969l-.402343.402344c-.398675.426486-.913101.597656-1.429688.597656h-8c-.5165873 0-1.0310143-.171171-1.4296875-.597656l-.4023437-.402344h-3.1679688v-6h3.1484375l.4316406-.4316406.0078125-.0078125c.3940155-.3795255.895521-.5605469 1.4121094-.5605469zm0 1c-.26531 0-.53058.1-.71875.28125l-2 2-.28125.28125v.875l.3007812.28125 2 2c.1694301.18125.4339288.28125.6992188.28125h1v-1c0-.26531-.1-.53057-.28125-.71875l-.28125-.28125h7.125l-.28125.28125c-.18125.18818-.28125.45344-.28125.71875v1h1c.26529 0 .529789-.1.699219-.28125l2-2 .300781-.28125v-.875l-.28125-.28125-2-2c-.18817-.18125-.45344-.28125-.71875-.28125h-1v1c0 .2653.0931.529799.28125.699219l.28125.300781h-7.125l.28125-.300781c.18815-.16942.28125-.433919.28125-.699219v-1zm-3 8h4v2h-4zm5 0h4v2h-4zm5 0h4v2h-4z" fill="#555753"/></svg>

<svg xmlns="http://www.w3.org/2000/svg" viewBox="0 0 24 24">
  <path
     style="fill:#555753"
     d="M 3 3 L 3 7 L 1 7 L 1 17 L 3 17 L 3 21 L 21 21 L 21 17 L 23 17 L 23 7 L 21 7 L 21 3 L 3 3 z M 5 5 L 9 5 L 9 7 L 5 7 L 5 5 z M 10 5 L 14 5 L 14 7 L 10 7 L 10 5 z M 15 5 L 19 5 L 19 7 L 15 7 L 15 5 z M 8 8 L 16 8 C 16.516588 8 17.018083 8.1810214 17.412109 8.5605469 L 17.419922 8.5683594 L 17.851562 9 L 21 9 L 21 15 L 17.832031 15 L 17.429688 15.402344 C 17.031013 15.82883 16.516587 16 16 16 L 8 16 C 7.4834127 16 6.9689857 15.828829 6.5703125 15.402344 L 6.1679688 15 L 3 15 L 3 9 L 6.1484375 9 L 6.5800781 8.5683594 L 6.5878906 8.5605469 C 6.9819061 8.1810214 7.4834116 8 8 8 z M 8 9 C 7.73469 9 7.46942 9.1 7.28125 9.28125 L 5.28125 11.28125 L 5 11.5625 L 5 12.4375 L 5.3007812 12.71875 L 7.3007812 14.71875 C 7.4702113 14.9 7.73471 15 8 15 L 9 15 L 9 14 C 9 13.73469 8.9 13.46943 8.71875 13.28125 L 8.4375 13 L 15.5625 13 L 15.28125 13.28125 C 15.1 13.46943 15 13.73469 15 14 L 15 15 L 16 15 C 16.26529 15 16.529789 14.9 16.699219 14.71875 L 18.699219 12.71875 L 19 12.4375 L 19 11.5625 L 18.71875 11.28125 L 16.71875 9.28125 C 16.53058 9.1 16.26531 9 16 9 L 15 9 L 15 10 C 15 10.2653 15.0931 10.529799 15.28125 10.699219 L 15.5625 11 L 8.4375 11 L 8.71875 10.699219 C 8.9069 10.529799 9 10.2653 9 10 L 9 9 L 8 9 z M 5 17 L 9 17 L 9 19 L 5 19 L 5 17 z M 10 17 L 14 17 L 14 19 L 10 19 L 10 17 z M 15 17 L 19 17 L 19 19 L 15 19 L 15 17 z "
     />
</svg>
